X: 49
T: First Grand Trio	 Op. 8
C: Fryderyk Chopin
%%abc-version 2.0
%%abcx-abcm2ps-target-version 5.9.1 (29 Sep 2008)
%%abc-creator hum2abc beta
%%abcx-conversion-date 2021/10/03 11:23:27
%%abc-edited-by Wojciech Jakubiak-Danek
%%abcx-initial-encoding-date 2019-11-12
%%humdrum-veritas 1554134251
%%humdrum-veritas-data 1868325013
%%linebreak <none>
%%barnumbers 0
L: 1/8
M: 3/4
N: Derived from 008-1b-W-003-violoncello.krn
P: First Grand Trio for Pianoforte, Violin et Violoncello. Concertant.
Q: "[quarter] = 63."
K: Eb clef=bass
z6 | 
_C2>C2 (3C_G,A, | 
=A,6 | 
B,2>z2z2 | 
E,2!accent!F,4 | 
G,2!accent!A, z z A, | 
G,2F,2E,2 | 
D,6 | 
E,2C,2D,2 | 
E,2!accent!G,2F,2 | 
B,2z !accent!B,,!accent!=B,,!accent!C, | 
D,3z/ E,/A,,B,, | 
!wedge!E,, zz2z2 | 
E,,2!accent!A,,2-(3:2:6A,,/B,,/A,,/G,,/A,,/B,,/ | 
C, zF,2E,2 | 
!accent!D,4D,2 | 
E,2D,2_D,2 | 
C,2B,,2A,,2 | 
A,,4B,,2 | 
B,,2E,, zG,2 | 
=B,,>D, (5:4:5F,/G,/F,/=E,/F,/ _B,3/_A,/ | 
A,2G,2=B,3/C/ | 
D>=B, G,/A,/_B,/A,< G,F,/ | 
F,2=E,2_D,2 | 
C, z=E2F2 | 
C zz2(3CG,A,/ | 
B,2>z2 z z/ C,/ | 
_D,6- | 
D,2!accent!C,4 | 
E,2!accent!D,4 | 
!accent!E,6 | 
D,6 | 
E,2!accent!F,4 | 
G,2A, z z A, | 
G,2F,2E,2 | 
D,2z2D,2 | 
E,2D,2_D,2 | 
C,2B,,2A,,2 | 
A,,2C,2B,,2 | 
=B,,2C, zz2 | 
F,2E, zz2 | 
!accent!=A,,2!wedge!B,, z/ _D/ (3D=A,B, | 
_F2-(3!accent!F!accent!E!accent!_D (3_CB,A, | 
!accent!_F,6 | 
E,2>E,2 (3E,=A,,B,,/ | 
_D,6 | 
C,2z C, (3C,F,,_G,, | 
_C,6 | 
B,,2B,2_C2 | 
B,2>B,2 (3B,F,_G, | 
A,2_C2B,2 | 
A,2!accent!_C4 | 
B,2!accent!F,4 | 
_G,2!accent!D,4 | 
!accent!E,>_D,_C,4 | 
B,,2D,F,B,2- | 
B,2=A,G,A,E | 
D2(5:4:5F/G/F/=E/F/[K:clef=treble] cB- | 
B=A AGFE | 
D6- | 
D2z2z2 | 
Z4 | 
z2.=A,,2.A,,2 | 
=A,,2>z2z2 | 
=E,2>E,2 (3E,!accent!=A,G,/ | 
F,2>z2z2 | 
!accent!F,2>=E,2 (3!accent!F,CB,/ | 
B,4(3:2:4!accent!_CB,z/D/ | 
E z!accent!_A,,2(3:2:6A,,/B,,/A,,/G,,/A,,/B,,/ | 
=B,,2C, zz2 | 
z6 | 
B,6- | 
B,4!accent!A,G, | 
G,A,/G,/ ^F,G,CB, | 
=A,2_A,2F,2 | 
E,2!accent!A,4 | 
G,2A,4 | 
G, z E,, z E,, z | 
!fermata!E,,2z2z2 |]
